X:1
T:D minor                      Jeremiah Ingalls, 1805
T:John Newton, 1779 None On Earth I Desire Besides Thee      88. 88. (L. M.)
T:The Tedious Hour
T:Transcribed from Ingalls' Christian Harmony , 1805 ; Counter byB. C. Johnston, 2017.
%%score [ 1 2 3 4 ]
L:1/8
Q:1/4=140
M:6/4
K:F
V:1 treble nm="Tr." snm="Tr."
V:2 treble nm="C." snm="C."
V:3 treble-8 nm="T." snm="T."
V:4 bass nm="B." snm="B."
V:1
"^1. How   te–dious  and  tasteless  the   hours,  When  Je – sus  no  lon – ger  I  see;  Sweet prospects, sweet birds, and sweet flowers,  Have lost all their sweetness with me.\n2. The     mid–summer  sun shines but dim,  The     fields  strive  in  vain  to  look  gay;  But     when  I    am   hap–py in      him,     De–cem–ber’s  as  plea – sant  as  May." d6 | %1
 A2 G2 A2 B2 A2 AB | ^c6 c6 | d2 A2 AB ^c2 A2 A2 | A6 A6 | d2 ^c2 d2 e2 f2 d2 | ^c6 d6 | %7
 A2 G2 A2 B2 A2 A2 | A12 |] %9
V:2
"^3. His      name  yields  the  richest  perfume,  And  swee – ter  than  mu–sic  his  voice;   His   pre – sence  dis – perses  my  gloom,  And  makes  all  with–in  me  re–joice.\n4.   I      should,  were  he  always  thus  nigh,   Have  no – thing  to   wish  or  to    fear;    No       mor – tal   so  hap – py  as        I,      My  summer  would  last  all  the  year." A6 | %1
 A2 B2 A2 F2 E2 DF | A6 A6 | F2 A2 d2 ^c2 d2 c2 | d6 d6 | A2 G2 F2 E2 F2 B2 | A6 A6 | %7
 d2 ^c2 d2 B2 A2 A2 | A12 |] %9
V:3
"^5. Con – tent  with  be –hol –ding  his  face,   My     all    to  his         pleasure  resigned;    No      chang–es    of sea – son  or   place,   Would make any change in my mind:\n6. While  blessed  with  a  sense  of  h is love,  A       pa – lace  a        toy  would  appear;   And     pri – sons  would  palaces  prove,     If  Je–sus would  dwell with me there." A6 | %1
 d2 ^c2 d2 f2 e2 d2 | e6 e6 | f2 e2 d2 e2 d2 ^c2 | d6 d6 | A2 G2 F2 ^c2 d2 B2 | A6 A6 | %7
 d2 ^c2 d2 e2 d2 c2 | d12 |] %9
V:4
"^7. Dear    Lord,  if  in – deed  I   am     thine,   If      thou  art  my  sun  and  my   song;     Say,       why  do  I  lan–guish  and  pine,   And  why  are  my  winters  so   long?\n8. O   drive  these  dark  clouds from my sky,  Thy  soul–chee–ring  pre –sence  restore;   Or         take  me  un–to  thee  on   high,   Where winter and clouds are no more." D,6 | %1
 F,2 E,2 D,2 D,2 C,2 D,2 | A,6 A,6 | F,2 F,2 G,2 A,2 A,2 A,2 | D,6 z2 z4 | z12 | z4 z2 D,6 | %7
 F,2 E,2 D,2 G,2 A,2 G,,2 | D,12 |] %9

